X: 1203
T: An Damez Kohz
R: waltz
M: 3/4
K: Eminor
|:e2 ef gf|eb ag fg|eB ef gf|de fg fd|
e2 ef gf|eb ag fg|e2 ed BA|Bc de fd:|
|:g2 fg ed|ef gf ed|g2 fg ed|eb ag fd|g2 fg ed|
ef gf ed|1 eb ag c'b|ag fd ef:|2 ef ga bd'|c'b ag fg||
K:F#m
|:fb ba c'2|ba ge fe|fg ag e2|fg ag ba|
fb ba c'2|ba ge fe|fg ag ba|1 ga ge fe:|2 ga ge fg||
|:a2 ga fe|fg ag fe|a2 ga c'b|gb ag fe|
a2 ga fe|fa ga fe|fb ba ge|fg ag fe:|

